src/components/Icon/utils/svgsOptimized/check.svg

<svg width="24" height="24" viewBox="0 0 24 24"  xmlns="http://www.w3.org/2000/svg">
<path d="M9.72 16.345L6.12 12.745C5.96 12.585 5.96 12.325 6.12 12.165L6.63 11.655C6.79 11.495 7.05 11.495 7.21 11.655L10.01 14.455L16.79 7.66498C16.95 7.50498 17.21 7.50498 17.37 7.66498L17.88 8.17498C18.04 8.33498 18.04 8.59498 17.88 8.74498L10.29 16.335C10.13 16.495 9.87 16.495 9.71 16.335L9.72 16.345Z" />
</svg>

<?xml version="1.0" encoding="utf-8"?><svg width="24" height="24" xmlns="http://www.w3.org/2000/svg" viewBox="0 0 24 24"><path d="m9.72 16.345-3.6-3.6a.41.41 0 0 1 0-.58l.51-.51a.41.41 0 0 1 .58 0l2.8 2.8 6.78-6.79a.41.41 0 0 1 .58 0l.51.51c.16.16.16.42 0 .57l-7.59 7.59a.41.41 0 0 1-.58 0l.01.01Z"/></svg>
